X: 1
T: Jack Brennan's
M: 4/4
L: 1/8
R: reel
K: Amaj
|: EF F2 AEFA | EF F2 AEFA | AB B2  cABc | ef f2 ecBA | 
EF F2 AEFA | EF F2 AEFA | AB B2 BAFE | AFFE F2 F2 :|
|: AFAB cB B2 | cABc ef f2 | AFAB cB B2 | AFFE EF F2 |
AFAB cB B2 | cABc ef f2 | ef f2 ecBA | AFFE F2 F2 :|
|: af f2 ef f2 | aefa baaf | af f2 ef f2 | ecBA EF F2 |
af f2 ef f2 | aefa baaf | ef f2 ecBA | AFFE F2 F2 :|
